chains/superseedtestnet/logo.svg

<svg width="61" height="64" viewBox="0 0 61 64" fill="none" xmlns="http://www.w3.org/2000/svg">
<path xmlns="http://www.w3.org/2000/svg" fill="#008e94" d="M0 0h256v256H0V0Z"/>
<path d="M34.9451 31.7741H34.6606L35.6918 31.5446C35.5754 31.5995 35.0032 31.7741 34.9451 31.7741ZM36.0958 31.5446H35.8081L36.0958 31.3733C35.8081 31.3733 35.5754 31.3733 35.3459 31.2569C34.082 31.4864 32.7664 31.5446 31.5607 31.7741C31.5025 31.7741 31.3894 31.8904 31.3894 31.8904C31.3894 31.9454 31.3894 31.9454 31.4444 32.0036C32.0197 32.0036 32.5919 32.1167 33.2254 32.1167C33.7394 32.1167 34.3147 31.9454 34.8319 31.8904C34.3729 32.2331 32.7664 32.1749 32.1329 32.1749C31.9034 32.1749 31.732 32.2331 31.5607 32.2912C31.6739 32.6339 32.0747 32.7502 32.191 33.0928C33.4517 34.3566 34.6024 36.1344 35.5172 37.6277C35.5172 37.799 35.5754 38.0866 35.6918 38.1998V38.4293C35.6918 38.5456 35.8663 38.7169 35.9794 38.7751H36.0376C36.0376 38.8301 35.9794 38.8882 35.9794 38.9464C35.9794 39.1759 36.4966 39.3472 36.4966 39.5218C36.4966 39.5767 36.4966 39.6349 36.4384 39.6349C35.9213 39.5767 35.8081 39.2923 35.5754 38.8882C35.0614 38.5456 34.9451 37.799 34.3147 37.5113C34.2016 37.0523 33.9107 37.1105 33.7394 36.6515L33.2254 35.5041C33.4517 35.5623 33.6262 35.7336 33.6262 35.9631C33.9689 36.7679 34.5442 37.2818 34.9451 38.0285C35.1164 38.0866 35.1164 38.3161 35.3459 38.3743C35.0032 37.3982 34.4311 36.1344 33.5099 35.5041C33.5099 35.3328 33.4517 35.1033 33.2254 35.1033C33.109 35.1033 33.109 35.3328 33.1672 35.3877C32.9377 35.0451 32.8246 34.6993 32.4755 34.4698L32.5337 34.3566C32.5337 34.069 32.3624 33.8395 32.1329 33.7813C32.0197 33.3805 31.5607 33.7813 31.3312 33.3223C31.1599 32.9215 30.6395 32.8084 30.2968 32.8084C29.2625 34.3566 25.4773 37.9703 24.9601 39.5218C24.6175 39.5767 24.3847 39.8062 24.0421 39.8062C23.9839 39.8062 23.7544 39.8062 23.7544 39.6931C23.7544 39.5767 23.9839 39.4636 24.0421 39.2923C24.6175 38.3743 29.7247 33.0347 29.7247 32.3462C29.7247 32.1749 29.3207 32.0618 29.1493 32.0618C28.9748 32.0036 28.7485 31.9454 28.574 31.9454C28.06 31.9454 27.5978 32.0618 27.0838 32.0618C25.8781 32.0618 24.6175 32.2912 23.3536 32.2912C23.1241 32.2912 23.2405 32.0618 23.0659 31.8904C23.4667 31.8323 23.8126 31.5446 24.2134 31.5446C24.3266 31.5446 24.5593 31.5995 24.7306 31.7159C25.0765 31.7159 25.4191 31.7741 25.7618 31.7741C27.0256 31.7741 28.8035 31.7159 30.0092 31.4282C30.0673 31.3733 30.1255 31.3733 30.1255 31.3151C30.1255 31.2569 29.8378 31.1987 29.896 31.0274C29.896 30.7979 28.574 29.6505 28.574 29.3047C28.6321 29.3047 28.6321 29.2465 28.6321 29.2465C28.6321 28.6194 26.6248 26.2664 26.1076 25.691V25.6328C26.1076 25.2902 25.8199 25.1157 25.8199 24.8312C25.8199 24.7149 25.9913 24.6017 26.1076 24.6017C26.2822 24.6017 26.3953 24.8312 26.5084 24.9444C26.4535 25.0025 26.3953 25.0607 26.3953 25.1157C26.3953 25.4033 27.656 27.0098 27.7723 27.0098C27.8305 27.0098 27.8305 26.8385 27.8887 26.8385C29.2043 27.6401 29.5534 29.1333 30.41 30.2808C31.273 30.2808 33.1672 25.6328 34.2598 25.232H34.3729C33.3967 26.6671 32.3042 28.0441 31.5025 29.5923L31.6157 29.7087C32.1329 29.4792 32.0197 28.9039 32.246 28.7325C32.3624 28.5612 32.9377 28.2154 32.9377 28.0441C32.9377 27.9277 34.3729 26.15 34.6606 25.5197C34.9451 25.232 35.1164 24.8862 35.4041 24.5436L35.0032 24.6567C35.1164 24.1977 36.0958 23.6256 36.5516 23.6838C36.0376 24.6017 35.0614 25.1157 34.6606 26.0918C34.1402 27.1843 33.5681 27.8146 32.8246 28.7325V28.7907C32.8246 28.962 32.4755 29.1333 32.4755 29.3047C32.1329 29.88 31.0435 30.5103 31.0435 31.3151C31.2149 31.3733 31.4444 31.3733 31.6157 31.3733C33.109 31.3733 34.6606 31.0274 36.1508 31.0274C36.6679 31.0274 37.4146 30.9693 37.8736 31.1987C37.2983 31.4282 36.6679 31.4864 36.0958 31.5446Z" fill="#FFF" stroke="#FFF" stroke-width="0.5" stroke-miterlimit="10"/>
<path d="M39.4536 40.6754C39.5894 40.2391 39.709 39.7769 39.8254 39.3017C39.9417 39.1498 40.0613 39.0012 40.1712 38.846C40.1712 39.5571 39.7963 40.1066 39.4536 40.6754ZM35.9271 46.2478C35.8689 46.5355 35.6394 46.5905 35.4099 46.6486C35.6297 46.0313 35.9174 45.4495 36.1954 44.8709C36.7513 44.6576 37.2491 44.1792 37.7825 43.898C37.2136 44.7158 36.5994 45.5076 35.9271 46.2478ZM39.0076 40.3587C38.6585 41.0989 38.2285 41.9134 37.7049 42.9186C37.2621 43.1061 37.0455 43.5618 36.7416 43.8883C36.7966 43.717 36.8548 43.5392 36.9582 43.4358C37.4528 42.2948 38.2253 41.3316 39.0076 40.3587ZM32.5977 48.7173C32.1936 49.4607 30.5871 50.3786 29.8436 50.3786C29.0388 50.3786 28.3503 49.6352 27.5454 49.577C27.3741 49.0017 26.7438 49.2894 26.3429 49.0017C25.3667 48.3132 24.0447 46.9363 23.4725 45.902C22.4964 44.0661 21.6365 41.6581 21.1193 39.7058C20.8898 38.9042 20.8898 34.253 20.8898 33.2801C20.8898 29.8378 20.7735 27.1388 22.2087 23.9809C22.2087 23.2925 22.9004 22.8917 22.9004 22.3745V22.145C23.3012 21.686 23.3012 20.9426 23.8184 20.5386C24.3324 18.874 25.8807 17.8429 26.6856 16.2914C27.3159 16.007 27.4904 15.144 28.0658 14.7432C29.3265 13.9384 30.6453 12.7942 32.2518 12.7942C32.4231 12.9073 32.5977 13.0204 32.8272 13.0204C32.9435 13.0204 32.9985 12.9655 33.1149 12.9655L33.3444 12.7942C33.5739 12.8491 33.8583 13.0786 33.9747 12.6778C35.0091 12.9073 36.4443 12.3901 37.0746 13.5376C39.3146 14.9727 38.6229 18.0142 39.5409 20.0796C39.7155 21.9155 39.8868 23.7514 39.9417 25.6455C39.9999 28.2281 40.3425 30.8107 40.3425 33.4514C40.3425 35.5782 40.1971 36.9422 39.8415 38.1963C39.612 38.6359 39.3728 39.0658 39.1401 39.5345C38.5098 39.8771 38.3934 40.795 37.7049 41.0245C37.2653 41.8617 36.7319 43.0382 36.1242 44.2277C36.1113 44.2309 36.1081 44.2374 36.0984 44.2374C36.024 44.1792 36.0079 44.0919 35.9659 44.0208C35.8107 44.2083 35.6588 44.3958 35.481 44.5638C35.5683 44.6867 35.6523 44.8159 35.7557 44.9161C34.8442 46.6001 33.784 48.1839 32.5977 48.7173ZM28.4085 51.2966C26.6306 51.2966 24.6233 50.6663 23.5889 49.173C22.784 48.1419 21.6947 47.1658 21.1775 45.902C20.6603 45.3299 18.9375 38.442 18.9375 37.4109C18.9375 37.3527 18.9375 37.1232 19.112 37.1232C19.8005 37.1232 21.0612 40.795 21.1775 41.3122C21.6947 43.035 22.6677 44.8709 23.4725 46.4773C23.9316 47.2821 24.5651 47.8543 25.0241 48.6591C25.5962 48.8304 25.8807 49.4607 26.5143 49.577C26.8019 50.0942 27.3741 50.1491 27.7199 50.5532C27.9494 50.5532 28.5798 50.7245 28.5798 51.0121C28.5798 51.1253 28.5798 51.2966 28.4085 51.2966ZM42.0654 33.8522C41.7777 34.0817 41.2638 34.4275 41.322 34.8865V35.0578C40.863 35.7463 40.8048 36.5511 40.3425 37.2396C40.2973 37.3107 40.2682 37.3915 40.2262 37.4626C40.9341 33.5936 41.1507 29.1493 41.1507 26.6217C41.1507 24.2686 40.3425 21.9737 40.1163 19.6206C39.9999 17.7847 39.9417 15.7743 38.736 14.2842C37.5336 12.9073 35.8689 11.873 33.9747 11.873C33.687 11.873 33.4025 11.873 33.1149 11.9311C32.8854 11.7598 32.5977 11.7017 32.31 11.7017C31.4502 11.7017 30.7584 12.3319 29.9568 12.3319C29.7305 12.3319 29.501 12.277 29.3265 12.2188L29.0388 12.5065L30.0731 12.5614C30.1313 12.6778 30.2445 12.7942 30.2445 12.9073C30.2445 13.2499 29.2683 13.1368 29.1519 13.7121C27.3159 14.685 25.3667 17.0381 24.2742 18.7609C23.6439 19.792 23.0717 21.0558 22.4964 22.145C22.4382 22.2032 22.0374 23.063 21.9242 23.063C21.9242 23.467 21.8079 23.8096 21.7529 24.1555C21.2939 24.6145 21.5783 25.4742 21.1193 25.9332C20.4308 28.1117 19.8587 30.8107 19.8587 33.0506C19.8587 33.2219 19.7423 33.2801 19.571 33.335C19.5128 32.8179 19.3383 32.2458 19.3965 31.6737V31.3278C19.6292 26.1627 19.7423 21.8024 22.784 17.3258C25.0791 13.9384 28.0076 13.4212 28.8675 12.3901C28.6961 12.3901 28.5798 12.3319 28.4085 12.3319C27.9494 12.3319 27.4904 12.5614 27.2609 12.9655C23.9897 14.0547 22.3832 17.0381 21.003 19.9083C20.7735 20.2542 20.489 20.4804 20.4308 20.9426C20.2013 21.9737 20.03 22.9499 19.6292 23.9809C19.5128 24.385 19.2833 25.0153 19.2833 25.416C19.2833 25.7619 19.4546 26.1045 19.4546 26.4504C19.4546 26.9093 19.3965 27.3101 19.2833 27.7691C18.653 30.927 18.4817 34.3694 18.4817 37.5822C18.4817 40.1648 19.6292 42.4596 20.4308 44.8127C21.2939 47.3371 23.1299 49.4057 25.0791 51.1253L26.5143 51.3548C26.8601 51.6424 27.2609 51.7588 27.7199 51.7588C28.3503 51.7588 28.9806 51.5261 29.6141 51.5843H29.8436C30.6453 51.0703 32.0223 50.7245 32.6559 50.036C32.8272 49.9197 32.9435 49.5189 33.173 49.5189C33.228 49.5189 33.2862 49.5189 33.3444 49.577C34.5501 48.2551 36.0434 47.1658 37.1295 45.7889C37.7049 45.1004 38.0508 44.2374 38.5647 43.494C38.736 43.2645 38.736 42.9186 39.0237 42.7473C39.7155 41.0245 42.4695 35.5168 42.4695 34.0267V33.8522H42.0654Z" fill="#FFF"/>
<path d="M39.4536 40.6754C39.5894 40.2391 39.709 39.7769 39.8254 39.3017C39.9417 39.1498 40.0613 39.0012 40.1712 38.846C40.1712 39.5571 39.7963 40.1066 39.4536 40.6754ZM35.9271 46.2478C35.8689 46.5355 35.6394 46.5904 35.4099 46.6486C35.6297 46.0313 35.9174 45.4495 36.1954 44.8709C36.7513 44.6576 37.2491 44.1792 37.7825 43.898C37.2136 44.7158 36.5994 45.5076 35.9271 46.2478ZM39.0076 40.3587C38.6585 41.0989 38.2285 41.9134 37.7049 42.9186C37.2621 43.1061 37.0455 43.5618 36.7416 43.8883C36.7966 43.717 36.8548 43.5392 36.9582 43.4358C37.4528 42.2948 38.2253 41.3316 39.0076 40.3587ZM32.5977 48.7173C32.1936 49.4607 30.5871 50.3786 29.8436 50.3786C29.0388 50.3786 28.3503 49.6352 27.5454 49.577C27.3741 49.0017 26.7438 49.2894 26.3429 49.0017C25.3667 48.3132 24.0447 46.9363 23.4725 45.902C22.4964 44.0661 21.6365 41.658 21.1193 39.7058C20.8898 38.9042 20.8898 34.253 20.8898 33.2801C20.8898 29.8378 20.7735 27.1388 22.2087 23.9809C22.2087 23.2925 22.9004 22.8917 22.9004 22.3745V22.145C23.3012 21.686 23.3012 20.9426 23.8184 20.5386C24.3324 18.874 25.8807 17.8429 26.6856 16.2914C27.3159 16.007 27.4904 15.144 28.0658 14.7432C29.3265 13.9384 30.6453 12.7942 32.2518 12.7942C32.4231 12.9073 32.5977 13.0204 32.8272 13.0204C32.9435 13.0204 32.9985 12.9655 33.1149 12.9655L33.3444 12.7942C33.5739 12.8491 33.8583 13.0786 33.9747 12.6778C35.0091 12.9073 36.4442 12.3901 37.0746 13.5376C39.3146 14.9727 38.6229 18.0142 39.5409 20.0796C39.7155 21.9155 39.8868 23.7514 39.9417 25.6455C39.9999 28.2281 40.3425 30.8107 40.3425 33.4514C40.3425 35.5782 40.1971 36.9422 39.8415 38.1963C39.612 38.6359 39.3728 39.0658 39.1401 39.5345C38.5098 39.8771 38.3934 40.795 37.7049 41.0245C37.2653 41.8617 36.7319 43.0382 36.1242 44.2277C36.1113 44.2309 36.1081 44.2374 36.0984 44.2374C36.024 44.1792 36.0079 44.0919 35.9659 44.0208C35.8107 44.2083 35.6588 44.3958 35.481 44.5638C35.5683 44.6867 35.6523 44.8159 35.7557 44.9161C34.8442 46.6001 33.784 48.1839 32.5977 48.7173ZM28.4085 51.2966C26.6306 51.2966 24.6233 50.6663 23.5889 49.173C22.784 48.1419 21.6947 47.1658 21.1775 45.902C20.6603 45.3299 18.9375 38.442 18.9375 37.4109C18.9375 37.3527 18.9375 37.1232 19.112 37.1232C19.8005 37.1232 21.0612 40.795 21.1775 41.3122C21.6947 43.035 22.6677 44.8709 23.4725 46.4773C23.9316 47.2821 24.5651 47.8543 25.0241 48.6591C25.5962 48.8304 25.8807 49.4607 26.5143 49.577C26.8019 50.0942 27.3741 50.1491 27.7199 50.5532C27.9494 50.5532 28.5798 50.7245 28.5798 51.0122C28.5798 51.1253 28.5798 51.2966 28.4085 51.2966ZM42.0654 33.8522C41.7777 34.0817 41.2638 34.4275 41.322 34.8865V35.0578C40.863 35.7463 40.8048 36.5511 40.3425 37.2396C40.2973 37.3107 40.2682 37.3915 40.2262 37.4626C40.9341 33.5936 41.1507 29.1493 41.1507 26.6217C41.1507 24.2686 40.3425 21.9737 40.1163 19.6206C39.9999 17.7847 39.9417 15.7743 38.736 14.2842C37.5336 12.9073 35.8689 11.873 33.9747 11.873C33.687 11.873 33.4025 11.873 33.1149 11.9311C32.8854 11.7598 32.5977 11.7017 32.31 11.7017C31.4502 11.7017 30.7584 12.3319 29.9568 12.3319C29.7305 12.3319 29.501 12.277 29.3265 12.2188L29.0388 12.5065L30.0731 12.5614C30.1313 12.6778 30.2445 12.7942 30.2445 12.9073C30.2445 13.2499 29.2683 13.1368 29.1519 13.7121C27.3159 14.685 25.3667 17.0381 24.2742 18.7609C23.6439 19.792 23.0717 21.0558 22.4964 22.145C22.4382 22.2032 22.0374 23.063 21.9242 23.063C21.9242 23.467 21.8079 23.8096 21.7529 24.1555C21.2939 24.6145 21.5783 25.4742 21.1193 25.9332C20.4308 28.1117 19.8587 30.8107 19.8587 33.0506C19.8587 33.2219 19.7423 33.2801 19.571 33.335C19.5128 32.8179 19.3383 32.2458 19.3965 31.6737V31.3278C19.6292 26.1627 19.7423 21.8024 22.784 17.3258C25.0791 13.9384 28.0076 13.4212 28.8675 12.3901C28.6961 12.3901 28.5798 12.3319 28.4085 12.3319C27.9494 12.3319 27.4904 12.5614 27.2609 12.9655C23.9897 14.0547 22.3832 17.0381 21.003 19.9083C20.7735 20.2542 20.489 20.4804 20.4308 20.9426C20.2013 21.9737 20.03 22.9499 19.6292 23.9809C19.5128 24.385 19.2833 25.0153 19.2833 25.4161C19.2833 25.7619 19.4546 26.1045 19.4546 26.4504C19.4546 26.9093 19.3965 27.3101 19.2833 27.7691C18.653 30.927 18.4817 34.3694 18.4817 37.5822C18.4817 40.1648 19.6292 42.4596 20.4308 44.8127C21.2939 47.3371 23.1299 49.4057 25.0791 51.1253L26.5143 51.3548C26.8601 51.6424 27.2609 51.7588 27.7199 51.7588C28.3503 51.7588 28.9806 51.5261 29.6141 51.5843H29.8436C30.6453 51.0703 32.0223 50.7245 32.6559 50.036C32.8272 49.9197 32.9435 49.5189 33.173 49.5189C33.228 49.5189 33.2862 49.5189 33.3444 49.577C34.5501 48.255 36.0434 47.1658 37.1295 45.7889C37.7049 45.1004 38.0508 44.2374 38.5647 43.494C38.736 43.2645 38.736 42.9186 39.0237 42.7473C39.7155 41.0245 42.4695 35.5168 42.4695 34.0267V33.8522H42.0654Z" stroke="#FFF" stroke-width="0.5" stroke-miterlimit="10"/>
<path d="M30.1252 50.7891C30.067 50.7891 30.0089 50.8472 30.0089 50.9054H30.1252C30.1252 50.8472 30.1252 50.8472 30.1802 50.8472C30.1802 50.7891 30.1802 50.7891 30.1252 50.7891Z" fill="#FFF"/>
<path d="M30.125 50.7891V50.9054" stroke="#FFF" stroke-width="0.5" stroke-miterlimit="10"/>
</svg>

<svg xmlns="http://www.w3.org/2000/svg" width="61" height="64" fill="none" viewBox="0 0 61 64"><path xmlns="http://www.w3.org/2000/svg" fill="#008e94" d="M0 0h256v256H0z"/><path fill="#FFF" stroke="#FFF" stroke-miterlimit="10" stroke-width=".5" d="M34.945 31.774h-.284l1.03-.23c-.116.055-.688.23-.746.23Zm1.15-.23h-.287l.288-.17c-.288 0-.52 0-.75-.117-1.264.23-2.58.288-3.785.517-.058 0-.172.116-.172.116 0 .055 0 .055.055.114.576 0 1.148.113 1.781.113.514 0 1.09-.172 1.607-.227-.46.343-2.066.285-2.7.285-.229 0-.4.058-.571.116.113.343.514.46.63.802 1.26 1.264 2.411 3.041 3.326 4.535 0 .171.058.459.175.572v.23c0 .116.174.287.287.345h.059c0 .055-.059.113-.059.171 0 .23.518.401.518.576 0 .055 0 .113-.059.113-.517-.058-.63-.343-.863-.747-.514-.342-.63-1.089-1.26-1.377-.113-.459-.404-.4-.576-.86l-.514-1.147c.227.058.401.23.401.46.343.804.918 1.318 1.32 2.065.17.058.17.287.4.345-.343-.976-.915-2.24-1.836-2.87 0-.171-.058-.4-.285-.4-.116 0-.116.229-.058.284-.23-.343-.342-.689-.692-.918l.059-.113c0-.288-.172-.517-.401-.576-.113-.4-.572 0-.802-.459-.171-.4-.691-.514-1.034-.514-1.035 1.549-4.82 5.162-5.337 6.714-.343.055-.575.284-.918.284-.058 0-.288 0-.288-.113 0-.116.23-.23.288-.4.575-.919 5.683-6.258 5.683-6.947 0-.171-.404-.284-.576-.284a2 2 0 0 0-.575-.117c-.514 0-.976.117-1.49.117-1.206 0-2.466.23-3.73.23-.23 0-.113-.23-.288-.402.4-.058.747-.345 1.147-.345.114 0 .346.054.518.17.345 0 .688.06 1.03.06 1.265 0 3.043-.06 4.248-.347.058-.055.116-.055.116-.113s-.287-.116-.229-.288c0-.23-1.322-1.376-1.322-1.722.058 0 .058-.058.058-.058 0-.628-2.007-2.98-2.524-3.556v-.058c0-.343-.288-.517-.288-.802 0-.116.171-.23.288-.23.174 0 .287.23.4.343-.055.059-.113.117-.113.172 0 .287 1.261 1.894 1.377 1.894.059 0 .059-.172.117-.172 1.315.802 1.664 2.295 2.521 3.443.863 0 2.757-4.648 3.85-5.049h.113c-.976 1.435-2.069 2.812-2.87 4.36l.113.117c.517-.23.404-.805.63-.976.116-.172.692-.518.692-.689 0-.116 1.435-1.894 1.723-2.524.284-.288.455-.634.743-.976l-.4.113c.112-.46 1.092-1.031 1.548-.973-.514.918-1.49 1.432-1.891 2.408-.52 1.092-1.093 1.723-1.836 2.64v.059c0 .171-.35.342-.35.514-.342.575-1.431 1.205-1.431 2.01.17.058.4.058.572.058 1.493 0 3.045-.346 4.535-.346.517 0 1.264-.058 1.723.172-.576.23-1.206.287-1.778.346Z"/><path fill="#FFF" d="M39.454 40.675c.135-.436.255-.898.371-1.373.117-.152.236-.3.346-.456 0 .711-.375 1.26-.717 1.83m-3.527 5.573c-.058.288-.288.343-.517.4.22-.617.507-1.199.785-1.777.556-.213 1.054-.692 1.587-.973a23 23 0 0 1-1.855 2.35m3.08-5.89c-.349.74-.779 1.555-1.302 2.56-.443.188-.66.644-.963.97.055-.171.113-.349.216-.452.495-1.141 1.267-2.104 2.05-3.077m-6.41 8.36c-.403.743-2.01 1.66-2.753 1.66-.805 0-1.494-.743-2.299-.801-.17-.575-.801-.288-1.202-.575-.976-.689-2.298-2.066-2.87-3.1-.977-1.836-1.836-4.244-2.354-6.196-.23-.802-.23-5.453-.23-6.426 0-3.442-.116-6.141 1.32-9.3 0-.687.691-1.088.691-1.605v-.23c.401-.459.401-1.202.918-1.606.514-1.665 2.063-2.696 2.868-4.248.63-.284.804-1.147 1.38-1.548 1.26-.805 2.58-1.949 4.186-1.949.171.113.346.226.575.226.117 0 .172-.054.288-.054l.23-.172c.229.055.513.285.63-.116 1.034.23 2.47-.288 3.1.86 2.24 1.435 1.548 4.476 2.466 6.542.175 1.836.346 3.671.4 5.566.059 2.582.401 5.165.401 7.805 0 2.127-.145 3.491-.5 4.745-.23.44-.47.87-.702 1.339-.63.342-.747 1.26-1.435 1.49-.44.837-.973 2.013-1.58 3.203-.014.003-.017.01-.027.01-.074-.059-.09-.146-.132-.217-.155.187-.307.375-.485.543.087.123.171.252.275.352-.912 1.684-1.972 3.268-3.158 3.801m-4.189 2.579c-1.777 0-3.785-.63-4.82-2.124-.804-1.031-1.893-2.007-2.41-3.271-.518-.572-2.24-7.46-2.24-8.491 0-.058 0-.288.174-.288.689 0 1.95 3.672 2.066 4.19.517 1.722 1.49 3.558 2.294 5.164.46.805 1.093 1.377 1.552 2.182.572.171.857.802 1.49.918.288.517.86.572 1.206.976.23 0 .86.172.86.46 0 .112 0 .284-.171.284m13.657-17.445c-.287.23-.801.576-.743 1.035v.17c-.459.69-.517 1.494-.98 2.183-.045.07-.074.151-.116.223.708-3.87.925-8.314.925-10.841 0-2.353-.809-4.648-1.035-7.001-.116-1.836-.174-3.847-1.38-5.337-1.202-1.377-2.867-2.411-4.761-2.411-.288 0-.572 0-.86.058-.23-.171-.517-.23-.805-.23-.86 0-1.552.63-2.353.63-.227 0-.456-.054-.63-.112l-.288.288 1.034.054c.058.117.171.233.171.346 0 .343-.976.23-1.092.805-1.836.973-3.785 3.326-4.878 5.049-.63 1.031-1.202 2.295-1.778 3.384-.058.058-.459.918-.572.918 0 .404-.116.747-.171 1.093-.46.459-.175 1.318-.634 1.777-.688 2.179-1.26 4.878-1.26 7.118 0 .17-.117.23-.288.284-.058-.517-.233-1.09-.175-1.661v-.346c.233-5.165.346-9.526 3.388-14.002 2.295-3.388 5.224-3.905 6.084-4.936-.172 0-.288-.058-.46-.058-.459 0-.918.23-1.147.633-3.271 1.09-4.878 4.073-6.258 6.943-.23.346-.514.572-.572 1.035-.23 1.03-.401 2.007-.802 3.038-.116.404-.346 1.034-.346 1.435 0 .346.172.689.172 1.034 0 .46-.058.86-.172 1.32-.63 3.157-.801 6.6-.801 9.812 0 2.583 1.147 4.878 1.949 7.23.863 2.525 2.699 4.594 4.648 6.313l1.435.23c.346.287.747.404 1.206.404.63 0 1.26-.233 1.894-.175h.23c.801-.514 2.178-.86 2.812-1.548.171-.116.288-.517.517-.517.055 0 .113 0 .171.058 1.206-1.322 2.7-2.411 3.785-3.788.576-.689.922-1.552 1.436-2.295.171-.23.171-.575.459-.747.691-1.722 3.445-7.23 3.445-8.72v-.175z"/><path stroke="#FFF" stroke-miterlimit="10" stroke-width=".5" d="M39.454 40.675c.135-.436.255-.898.371-1.373.117-.152.236-.3.346-.456 0 .711-.375 1.26-.717 1.83Zm-3.527 5.573c-.058.288-.288.342-.517.4.22-.617.507-1.199.785-1.777.556-.213 1.054-.692 1.587-.973a23 23 0 0 1-1.855 2.35Zm3.08-5.89c-.349.74-.779 1.555-1.302 2.56-.443.188-.66.644-.963.97.055-.171.113-.349.216-.452.495-1.141 1.267-2.104 2.05-3.077Zm-6.41 8.36c-.403.743-2.01 1.66-2.753 1.66-.805 0-1.494-.743-2.299-.801-.17-.575-.801-.288-1.202-.575-.976-.689-2.298-2.066-2.87-3.1-.977-1.836-1.836-4.244-2.354-6.196-.23-.802-.23-5.453-.23-6.426 0-3.442-.116-6.141 1.32-9.3 0-.687.691-1.088.691-1.605v-.23c.401-.459.401-1.202.918-1.606.514-1.665 2.063-2.696 2.868-4.248.63-.284.804-1.147 1.38-1.548 1.26-.805 2.58-1.949 4.186-1.949.171.113.346.226.575.226.117 0 .172-.054.288-.054l.23-.172c.229.055.513.285.63-.116 1.034.23 2.47-.288 3.1.86 2.24 1.435 1.548 4.476 2.466 6.542.175 1.836.346 3.671.4 5.566.059 2.582.401 5.165.401 7.805 0 2.127-.145 3.491-.5 4.745-.23.44-.47.87-.702 1.339-.63.342-.747 1.26-1.435 1.49-.44.837-.973 2.013-1.58 3.203-.014.003-.017.01-.027.01-.074-.059-.09-.146-.132-.217-.155.187-.307.375-.485.543.087.123.171.252.275.352-.912 1.684-1.972 3.268-3.158 3.801Zm-4.189 2.579c-1.777 0-3.785-.63-4.82-2.124-.804-1.031-1.893-2.007-2.41-3.271-.518-.572-2.24-7.46-2.24-8.491 0-.058 0-.288.174-.288.689 0 1.95 3.672 2.066 4.19.517 1.722 1.49 3.558 2.294 5.164.46.805 1.093 1.377 1.552 2.182.572.171.857.802 1.49.918.288.517.86.572 1.206.976.23 0 .86.172.86.46 0 .112 0 .284-.171.284Zm13.657-17.445c-.287.23-.801.576-.743 1.035v.17c-.459.69-.517 1.494-.98 2.183-.045.07-.074.151-.116.223.708-3.87.925-8.314.925-10.841 0-2.353-.809-4.648-1.035-7.001-.116-1.836-.174-3.847-1.38-5.337-1.202-1.377-2.867-2.411-4.761-2.411-.288 0-.572 0-.86.058-.23-.171-.517-.23-.805-.23-.86 0-1.552.63-2.353.63-.227 0-.456-.054-.63-.112l-.288.288 1.034.054c.058.117.171.233.171.346 0 .343-.976.23-1.092.805-1.836.973-3.785 3.326-4.878 5.049-.63 1.031-1.202 2.295-1.778 3.384-.058.058-.459.918-.572.918 0 .404-.116.747-.171 1.093-.46.459-.175 1.318-.634 1.777-.688 2.179-1.26 4.878-1.26 7.118 0 .17-.117.23-.288.284-.058-.517-.233-1.09-.175-1.661v-.346c.233-5.165.346-9.526 3.388-14.002 2.295-3.388 5.224-3.905 6.084-4.936-.172 0-.288-.058-.46-.058-.459 0-.918.23-1.147.633-3.271 1.09-4.878 4.073-6.258 6.943-.23.346-.514.572-.572 1.035-.23 1.03-.401 2.007-.802 3.038-.116.404-.346 1.034-.346 1.435 0 .346.172.689.172 1.034 0 .46-.058.86-.172 1.32-.63 3.157-.801 6.6-.801 9.812 0 2.583 1.147 4.878 1.949 7.23.863 2.525 2.699 4.594 4.648 6.313l1.435.23c.346.287.747.404 1.206.404.63 0 1.26-.233 1.894-.175h.23c.801-.514 2.178-.86 2.812-1.548.171-.116.288-.517.517-.517.055 0 .113 0 .171.058 1.206-1.322 2.7-2.411 3.785-3.788.576-.689.922-1.552 1.436-2.295.171-.23.171-.575.459-.747.691-1.722 3.445-7.23 3.445-8.72v-.175z"/><path fill="#FFF" d="M30.125 50.79a.125.125 0 0 0-.116.115h.116c0-.058 0-.058.055-.058 0-.058 0-.058-.055-.058"/><path stroke="#FFF" stroke-miterlimit="10" stroke-width=".5" d="M30.125 50.79v.115"/></svg>
